docs/Widgets/org.openxtalk.hermann.baseclock.1.0.5.svg

<?xml version="1.0" standalone="no"?><!DOCTYPE svg PUBLIC "-//W3C//DTD SVG 20010904//EN" "http://www.w3.org/TR/2001/REC-SVG-20010904/DTD/svg10.dtd"><svg version="1.0" xmlns="http://www.w3.org/2000/svg"preserveAspectRatio="xMidYMid meet"><path d="M0 63.5 C 0 127,0 127,140 127 C 280 127,280 127,280 63.5 C 280 0,280 0,140 0 C 0 0,0 0,0 63.5 M153.719 63.250 C 153.938 98,153.938 98,145.969 98 C 138 98,138 98,138 63.667 C 138 44.783,138.318 29.015,138.706 28.627 C 139.095 28.239,142.582 28.051,146.456 28.210 C 153.5 28.5,153.5 28.5,153.719 63.250 M51.629 35.326 C 58.859 36.842,62.381 38.936,65.044 43.304 C 68.506 48.982,67.210 55.679,61.644 60.878 C 59.098 63.257,59.098 63.257,63.291 65.378 C 76.772 72.2,74.214 90.111,58.986 95.514 C 53.007 97.635,35.372 99.140,25.750 98.349 C 18 97.712,18 97.712,18 65.856 C 18 34,18 34,31.750 34.021 C 39.313 34.032,48.258 34.620,51.629 35.326 M127.327 34.750 C 127.572 35.163,128.085 38.247,128.467 41.604 C 129.162 47.707,129.162 47.707,122.331 48.375 C 111.733 49.410,105.224 51.819,100.313 56.524 C 96.202 60.464,96 60.928,96 66.446 C 96 71.806,96.278 72.512,99.750 75.964 C 104.441 80.629,112.491 83.689,122.442 84.591 C 130.080 85.283,130.080 85.283,129.485 89.892 C 128.166 100.121,129.093 99.362,118.695 98.715 C 98.026 97.427,83.607 88.679,79.034 74.651 C 77.377 69.568,78.125 59.510,80.533 54.5 C 84.606 46.024,95.302 38.576,107.721 35.567 C 113.961 34.055,126.602 33.528,127.327 34.750 M34 65.477 C 34 86.212,34 86.212,42.097 85.844 C 49.5 85.508,50.399 85.237,52.597 82.682 C 55.626 79.161,55.649 75.866,52.669 72.402 C 50.780 70.205,49.267 69.604,44.669 69.222 C 41.424 68.953,38.994 68.271,38.986 67.626 C 38.979 67.007,38.709 65.516,38.386 64.314 C 37.888 62.457,38.304 62.033,41.150 61.493 C 46.983 60.387,50.703 55.937,49.569 51.420 C 48.747 48.144,45.481 46.248,39.250 45.431 C 34 44.742,34 44.742,34 65.477 M202.436 51.410 C 214.386 58.413,218.353 74.231,211.375 87.053 C 205.402 98.027,190.143 102.751,177.5 97.540 C 168.551 93.851,163.026 84.767,163.010 73.718 C 162.998 65.830,164.769 60.889,169.301 56.165 C 175.246 49.967,180.812 47.934,190.644 48.370 C 196.243 48.618,198.794 49.275,202.436 51.410 M238.5 56.044 C 241.250 60.419,243.794 63.998,244.154 63.999 C 244.513 64,247.134 60.373,249.977 55.941 C 252.879 51.418,255.663 48.097,256.323 48.372 C 256.970 48.642,259.863 49.650,262.750 50.614 C 265.637 51.577,268 52.750,268 53.221 C 268 53.692,265.265 58.144,261.923 63.115 C 258.580 68.086,256.059 72.712,256.321 73.394 C 256.583 74.077,259.543 78.816,262.899 83.927 C 268.377 92.270,269.787 95,268.619 95 C 268.410 95,265.305 96.104,261.720 97.454 C 255.201 99.907,255.201 99.907,249.525 90.954 C 246.403 86.029,243.715 82,243.551 82 C 243.386 82,240.860 85.713,237.936 90.250 C 235.012 94.787,232.347 98.836,232.014 99.246 C 231.235 100.205,219.763 95.789,219.282 94.345 C 219.081 93.744,221.898 88.887,225.541 83.551 C 232.165 73.850,232.165 73.850,226.144 64.675 C 222.832 59.629,219.982 54.898,219.811 54.162 C 219.540 52.996,229.287 48.387,232.5 48.161 C 233.050 48.123,235.750 51.670,238.5 56.044 M183.655 61.133 C 181.241 62.536,178.050 69.648,178.022 73.685 C 177.954 83.586,185.748 90.250,193.006 86.497 C 200.517 82.613,201.079 66.671,193.883 61.631 C 191.239 59.779,186.391 59.543,183.655 61.133Z" /></svg>

<?xml version="1.0" encoding="utf-8"?>
<!-- Generator: Adobe Illustrator 26.5.0, SVG Export Plug-In . SVG Version: 6.00 Build 0)  -->
<svg version="1.1" id="Layer_1" xmlns="http://www.w3.org/2000/svg" xmlns:xlink="http://www.w3.org/1999/xlink" x="0px" y="0px"
	 viewBox="0 0 280 127" style="enable-background:new 0 0 280 127;" xml:space="preserve">
<path d="M0,63.5C0,127,0,127,140,127s140,0,140-63.5S280,0,140,0S0,0,0,63.5 M153.7,63.2C153.9,98,153.9,98,146,98c-8,0-8,0-8-34.3
	c0-18.9,0.3-34.7,0.7-35c0.4-0.4,3.9-0.6,7.8-0.4C153.5,28.5,153.5,28.5,153.7,63.2 M51.6,35.3c7.2,1.5,10.8,3.6,13.4,8
	c3.5,5.7,2.2,12.4-3.4,17.6c-2.5,2.4-2.5,2.4,1.6,4.5c13.5,6.8,10.9,24.7-4.3,30.1c-6,2.1-23.6,3.6-33.2,2.8
	C18,97.7,18,97.7,18,65.9S18,34,31.8,34C39.3,34,48.3,34.6,51.6,35.3 M127.3,34.8c0.2,0.4,0.8,3.5,1.1,6.9c0.7,6.1,0.7,6.1-6.1,6.8
	c-10.6,1-17.1,3.4-22,8.1c-4.1,3.9-4.3,4.4-4.3,9.9c0,5.4,0.3,6.1,3.8,9.5c4.7,4.7,12.7,7.7,22.7,8.6c7.6,0.7,7.6,0.7,7,5.3
	c-1.3,10.2-0.4,9.5-10.8,8.8C98,97.4,83.6,88.7,79,74.7c-1.7-5.1-0.9-15.1,1.5-20.2c4.1-8.5,14.8-15.9,27.2-18.9
	C114,34.1,126.6,33.5,127.3,34.8 M34,65.5c0,20.7,0,20.7,8.1,20.4c7.4-0.3,8.3-0.6,10.5-3.2c3-3.5,3.1-6.8,0.1-10.3
	c-1.9-2.2-3.4-2.8-8-3.2c-3.2-0.3-5.7-1-5.7-1.6c0-0.6-0.3-2.1-0.6-3.3c-0.5-1.9-0.1-2.3,2.8-2.8c5.8-1.1,9.6-5.6,8.4-10.1
	c-0.8-3.3-4.1-5.2-10.3-6C34,44.7,34,44.7,34,65.5 M202.4,51.4c11.9,7,15.9,22.8,8.9,35.6c-6,11-21.2,15.7-33.9,10.5
	c-8.9-3.7-14.5-12.8-14.5-23.8c0-7.9,1.8-12.8,6.3-17.6c5.9-6.2,11.5-8.2,21.3-7.8C196.2,48.6,198.8,49.3,202.4,51.4 M238.5,56
	c2.8,4.4,5.3,8,5.7,8c0.4,0,3-3.6,5.8-8.1c2.9-4.5,5.7-7.8,6.3-7.6c0.6,0.3,3.5,1.3,6.4,2.2c2.9,1,5.2,2.1,5.2,2.6s-2.7,4.9-6.1,9.9
	c-3.3,5-5.9,9.6-5.6,10.3c0.3,0.7,3.2,5.4,6.6,10.5c5.5,8.3,6.9,11.1,5.7,11.1c-0.2,0-3.3,1.1-6.9,2.5c-6.5,2.5-6.5,2.5-12.2-6.5
	c-3.1-4.9-5.8-9-6-9c-0.2,0-2.7,3.7-5.6,8.2c-2.9,4.5-5.6,8.6-5.9,9c-0.8,1-12.3-3.5-12.7-4.9c-0.2-0.6,2.6-5.5,6.3-10.8
	c6.6-9.7,6.6-9.7,0.6-18.9c-3.3-5-6.2-9.8-6.3-10.5c-0.3-1.2,9.5-5.8,12.7-6C233.1,48.1,235.8,51.7,238.5,56 M183.7,61.1
	c-2.4,1.4-5.6,8.5-5.6,12.6c-0.1,9.9,7.7,16.6,15,12.8c7.5-3.9,8.1-19.8,0.9-24.9C191.2,59.8,186.4,59.5,183.7,61.1z"/>
</svg>
